X:1
T:Gelido in ogni veda
T:Gelido in ogni vena
T:Antonio Vivaldi
T:Il Farnace
C:Antonio Vivaldi
%%score 1 { ( 2 3 ) | 4 }
L:1/8
Q:1/4=40
M:4/4
K:Ab
V:1 treble nm="Voice"
V:2 treble nm="Piano"
V:3 treble 
V:4 bass 
V:1
 z8 | z8 | z8 | z8 | z8 | z8 | z2 z2 z4 |!mp! cF/F/ FF d/-c/d z2 | g/f/=e/d/ c/B/A/G/ AF z2 | %9
w: |||||||Ge- li- do~in og- ni ve- * na|sco- * rrer mi sen- * to il san- gue,|
 =AA/A/ fA B/A/B z2 | =BB/B/ fB c/B/c z c | CBCA G2 z2 | %12
w: l'om- bra del fi- glio~e- san- * gue|l'om- bra del fi- glio~e- san- * gue m'in-|gom- bra di ter- ror.|
 c{/B}A/G/ Fc d/4-c/4d/d/4c/4d/- d/f/4e/4(3d/c/B/ | %13
w: l'om- bra del fi- glio~e- san- * * * * * * * * * * *|
 c/4-B/4c/c/4B/4c/- (3c/e/d/(3c/B/A/ B/4-A/4B/B/4A/4B/- (3B/d/c/(3B/A/G/ | %14
w: |
 AA- (3A/F/G/(3A/G/F/ E/=D/C z e | f{/e}=d{/c}=B{/A}G F2 z B | cC =D>C C2 z2 | z8 | z4 cG/-G/ GG | %19
w: * * * * * * * * * * gue. m'in-|gom- bra di ter- ror. m'in-|gom- bra di ter- ror.||Ge- li- do~in og- ni|
 A/G/A z2 f/e/=d/c/ =B/A/G/F/ | EC z2 g/f/=e/d/ c/B/A/G/ | AF z2 d-d/d/ dd | %22
w: ve- * na Sco- * rrer mi sen- * to il|san- gue Sco- * rrer mi sen- * to il|san- gue l'om- bra del fi- glio~e-|
 g2- (3g/f/=e/(3d/c/=B/ c/4B/4c/c/4B/4c/ c/4B/4c/c/4B/4c/ | %23
w: san- * * * * * * * * * * * * * * * * * *|
 f2- (3f/e/d/(3c/B/=A/ B/4A/4B/B/4A/4B/ B/4A/4B/B/4A/4B/ | =e2- (3e/d/c/(3B/A/G/ AF z f | %25
w: |* * * * * * * * gue m'in-|
 f{/e}d{/c}=B{/A}G =E2 z g | g{/f}=e{/d}cB !fermata!=B2 z e | fF AG/F/ F2 z2 | z8 | z8 | z8 | z8 | %32
w: gom- bra di ter- ror m'in-|gom- bra di ter- ror m'in-|gom- bra di ter- * ror.|||||
 z3 c dddc!fine! | =B2 c2 ec/c/ cc | =B/=A/G z =d fdGf | e=d z G ed/c/ =B>c | c2 z c ecFe | %37
w: E per mag- gior mia|pe- na Ve- do che fui cru-|de- * le A~un a- ni- ma~in- no-|cen- te Al co- * re del mio|cor. A~un a- ni- ma~in- no-|
 dd z/ B/d/f/ GG z/ E/G/B/ | =AA z/ F/A/e/ d/c/B z f |"_rit." dc/B/ =A>B !fermata!B4!D.C.! |] %40
w: cen- * * * * * * * * *|* * * * * * * te, Al|co- re * del mio cor.|
V:2
 z4 z4 | [Gd]/[Gd]/[Gd]/[Gd]/ [Gd]/[Gd]/[Gd]/[Gd]/ [db]/[db]/[db]/[db]/ [db]/[db]/[db]/[db]/ | %2
 [db]/[da]/[Gdg]/[Gdf]/ [G=e]/[Gd]/[Gc]/[GB]/ [ac']/[fb]/[fa]/[fg]/ f/_e/d/c/ | %3
 [Ada]/[Adg]/[Af]/[Ae]/ d/c/[Bd]/A/ [Bgb]/[Bga]/[Bg]/[Bf]/ =e/d/c/B/ | %4
 [Gcg]/[Gcf]/[G=e]/[Gcd]/ c/[Bc]/A/[Gc]/ [Afa]/[Afg]/[Af]/[A_e]/ d/c/B/A/ | %5
 [Fdf]/[Fde]/[Fd]/[Fc]/ B/A/G/F/ [G=eg]/[Gef]/e/[Gd]/ c/B/A/[GBe]/ | %6
 [gb]/[gb][gb][gb][gb]/ [fa][Af][Bg][G=e] | %7
 [Ff] z z2 [FBd]/[FBd]/[FBd]/[FBd]/ [FBd]/[FBd]/[FBd]/[FBd]/ | %8
 [GBc]/[GBc]/[GBc]/[GBc]/ [GBc]/[GBc]/[=EBc]/[EBc]/ [Af]/[Ae]/[Ad]/[Ac]/ [AB]/A/[GA]/[FA]/ | %9
!p! f/[ef]/d/[cf]/ B/=A/G/F/ f/[ef]/=d/[cf]/ B/A/G/F/ | %10
 f/e/d/c/ B/A/G/F/ [=eg]/[df]/[ce]/[=Bd]/ [Ac]/[GB]/[FA]/[=EG]/ | %11
 C[Gc]C[FA] [=EG]/[=eg][eg][eg][eg]/ | %12
 [fa]/[fa]/[fa]/[fa]/ [fa]/[fa]/[fa]/[fa]/ [da]/[da]/[da]/[da]/ [Gdg]/[Gdg]/[Gdg]/[Gdg]/ | %13
 [ceg]/[ceg]/[Acg]/[Acg]/ [Acf]/[Acf]/[Fcf]/[Fcf]/ [Bdf]/[Bdf]/[GBf]/[GBf]/ [GB=e]/[GBe]/[=EBe]/[EBe]/ | %14
 [Acf]/[Acf]/[FAf]/[FAf]/ [FA=d]/[=DAd]/[DAd]/[DAd]/ [eg]/[df]/[ce]/[Bd]/ [Ac]/[GB]/[FA]/[EG]/ | %15
 [=B,=DF]/[B,DF][B,DF][B,DF][B,DF][B,DF][B,DF][B,DF][B,DF]/ | %16
 CCC=B, [ce]/[B=d]/[Ac]/[GB]/ [FA]/[EG]/[=DF]/[CE]/ | %17
 [=B,=D]/[B,D]/[B,D]/[B,D]/ [B,D]/[B,D]/[B,D]/[B,D]/ [df]/[ce]/[Bd]/[Ac]/ [GB]/[FA]/[EG]/[DF]/ | %18
 [CEG][Gce][Adf][G=B=d] !fermata![Ec]2 z2 | %19
 [CFA]/[CFA]/[CFA]/[CFA]/ [CFA]/[CFA]/[CFA]/[CFA]/ [=DFG]/[DFG]/[DFG]/[DFG]/ [DFG]/[DFG]/[DFG]/[DFG]/ | %20
 g/f/e/=d/ c/B/A/G/ [=eg]/[=eg][eg][eg][c=e]/ | %21
 [fa]/[eg]/[df]/[ce]/ [Bd]/[Ac]/[GB]/[FA]/ [da]/[da][da][da][da]/ | %22
 [dg]/[dg][dg][dg][dg]/ [cg]/[cg][cg][cg][cg-]/ | [cg]/[cf][cf][cf][cf]/ [Bf][Bf][Bf][Bf] | %24
 [B=e]/[Be][GBe][GBe][Be]/ f/[FA]/[FA]/[FA]/ [FA]/[FA]/[FA]/[FA]/ | %25
 [B,DF]/[B,DF]/[B,DF]/[B,DF]/ [B,DF]/[B,DF]/[B,DF]/[B,DF]/ [B,=EG]/[B,EG]/[B,EG]/[B,EG]/ [B,EG]/[B,EG]/[B,EG]/[B,EG]/ | %26
 [B,=EG]/[B,EG]/[B,EG]/[B,EG]/ [B,EG]/[B,EG]/[B,EG]/[B,EG]/ !fermata![=B,DF]2 z [B=e] | %27
 [Af]F [C=EG]2 c'/b/a/g/ f/e/d/c/ | a/g/f/e/ d/c/B/A/ b/a/g/f/ =e/d/c/=B/ | %29
 g/f/e/d/ c/B/A/G/ a/g/f/e/ d/c/B/A/ | f/e/d/c/ B/A/G/F/ g/f/=e/d/ c/B/A/G/ | %31
 [=egb]/[egb][egb][egb][egb]/ [fa][Acf][Bdg][Gce] | %32
 !fermata![cf]2 z!p! [FAc] [FAd]/[FAd]/[FAd]/[FAd]/ [FAd]/[FAd]/[FAc]/[FAc]/ | %33
 [=DG=B]/[DGB]/[DGB]/[DGB]/ [Gc]/[Gc]/[Gc]/[Gc]/ [=Ace]/[Ace]/[Ace]/[Ace]/ [Ace]/[Ace]/[Ace]/[Ace]/ | %34
 [=D=B=d]/[G,=B,D][G,B,D][G,B,D][G,B,D][G,B,D][G,B,D][G,B,D][G,B,D]/ | %35
 [CE]/[CE]/[=B,=D]/[B,D]/ [=B=d]/[GB]/[DG]/[B,D]/ [ce]/[Gc]/[EG]/[CE]/ [Bd]/[GB]/[DG]/[B,D]/ | %36
 [ce]/[ce][ce][ce][ce][ce][ce][ce][ce]/ | [Bd]/[Bd][Bd][Bd][Bd][Bd][Bd][Bd][Bd]/ | %38
 [=Ac]/[Ac][Ac][Ac][Ac]/ [FBd]/[FBd][FBd][FBd][FBd]/ | [FBd][FBd][F=Ac][FAc] !fermata![FBd]4 |] %40
V:3
 x4 G/G/G/G/ G/G/G/G/ | x8 | x8 | x8 | x8 | x8 | x8 | x8 | x8 | x8 | x8 | x8 | x8 | x8 | x8 | x8 | %16
 x8 | x8 | x8 | x8 | x8 | x8 | x8 | x8 | x8 | x8 | x8 | x8 | x8 | x8 | x8 | x8 | x8 | x8 | x8 | %35
 x8 | x8 | x8 | x8 | x8 |] %40
V:4
!mp! [F,,F,]/[F,,F,]/[F,,F,]/[F,,F,]/ [F,,F,]/[F,,F,]/[F,,F,]/[F,,F,]/ [F,,F,]/[F,,F,]/[F,,F,]/[F,,F,]/ [F,,F,]/[F,,F,]/[F,,F,]/[F,,F,]/ | %1
 [F,,F,]/[F,,F,]/[F,,F,]/[F,,F,]/ [F,,F,]/[F,,F,]/[F,,F,]/[F,,F,]/ [F,,F,]/[F,,F,]/[F,,F,]/[F,,F,]/ [F,,F,]/[F,,F,]/[F,,F,]/[F,,F,]/ | %2
!f! [=E,,=E,]/[E,,E,]/[E,,E,]/[E,,E,]/!p! [E,,E,]/[E,,E,]/[E,,E,]/[E,,E,]/!f! [F,,F,]/[F,,F,]/[F,,F,]/[F,,F,]/!p! [F,,F,]/[F,,F,]/[F,,F,]/[F,,F,]/ | %3
!f! [F,F]/[F,F]/[F,F]/[F,F]/!p! [F,F]/[F,F]/[F,D]/[F,D]/!f! [=E,D]/[E,D]/[E,D]/[E,D]/!p! [E,D]/[E,D]/[E,D]/[E,D]/ | %4
!f! =E,/E,/E,/E,/!p! E,/E,/E,/E,/!f! =D,/D,/D,/D,/!p! D,/D,/D,/D,/ | %5
!f! D,/D,/D,/D,/!p! D,/D,/D,/D,/!f! C,/C,/C,/C,/!p! C,/C,/C,/C,/ | %6
!mf! C,/C,/C,/C,/ C,/C,/C,/C,/ F,/F,/F,/F,/ B,,/B,,/C,/C,/ | %7
 [F,,C] z z2!mp! F,/F,/F,/F,/ F,/F,/F,/F,/ | %8
!mf! =E,/E,/E,/E,/ E,/E,/E,/E,/!>(! [F,C]/[F,C]/[F,C]/[F,C]/ [F,C]/[F,C]/[F,C]/[F,C]/!>)! | %9
 [E,C]/[E,C]/[E,C]/[E,C]/ [E,C]/[E,C]/[E,C]/[E,C]/ [=D,=D]/[D,D]/[D,D]/[D,D]/ [D,D]/[D,D]/[D,D]/[D,D]/ | %10
 [D,=B,]/[D,B,]/[D,B,]/[D,B,]/ [D,B,]/[D,B,]/[D,B,]/[D,B,]/ [C,G,]/[C,G,]/[C,G,]/[C,G,]/ [C,G,]/[C,G,]/[C,G,]/[C,G,]/ | %11
 [C,=E,]/[C,E,]/[C,E,]/[C,E,]/ [C,F,]/[C,F,]/[C,F,]/[C,F,]/ [C,G,]/[C,C]/[C,C]/[C,C]/ [C,C]/[C,C]/[C,C]/[C,C]/ | %12
 [F,,C,]/[F,C]/[F,C]/[F,C]/ [F,C]/[F,C]/[F,F]/[F,F]/ [B,,B,]/[B,,B,]/[B,,B,]/[B,,B,]/ [E,B,]/[E,B,]/[E,B,]/[E,B,]/ | %13
 [A,,E,]/[A,,E,]/[A,,A,]/[A,,A,]/ D,/D,/D,/D,/ [G,,D,]/[G,,D,]/[G,,G,]/[G,,G,]/ C,/C,/C,/C,/ | %14
 F,,/F,,/F,,/F,,/ =B,,/B,,/B,,/B,,/ C,/C,/C,/C,/ C,/C,/C,/C,/ | %15
 G,,/G,,/G,,/G,,/ G,,/G,,/G,,/G,,/ G,,/G,,/G,,/G,,/ G,,/G,,/G,,/G,,/ | %16
 C,/C,/C,/C,/ G,,/G,,/G,,/G,,/ C,2 z2 | %17
 [G,,G,]/[G,,G,]/[G,,G,]/[G,,G,]/ [G,,G,]/[G,,G,]/[G,,G,]/[G,,G,]/ G,,/G,,/G,,/G,,/ G,,/G,,/G,,/G,,/ | %18
 C,[C,,C,]F,,G,, !fermata!C,,2 z2 | C,/C,/C,/C,/ C,/C,/C,/C,/ =B,,/B,,/B,,/B,,/ B,,/B,,/B,,/B,,/ | %20
 C,/C,/C,/C,/ C,/C,/C,/C,/ C,/C,/C,/C,/ C,/C,/C,/C,/ | %21
 [F,C]/[F,C]/[F,C]/[F,C]/ [F,C]/[F,C]/[F,C]/[F,C]/ [F,D]/[F,D]/[F,D]/[F,D]/ [F,D]/[F,D]/[F,D]/[F,D]/ | %22
 [=E,B,]/[E,B,]/[E,B,]/[E,B,]/ [E,B,]/[E,B,]/[E,B,]/[E,B,]/ [_E,C]/[E,C]/[E,C]/[E,C]/ [E,C]/[E,C]/[E,C]/[E,C]/ | %23
 A,/A,/A,/A,/ A,/A,/A,/A,/ B,/B,/B,/B,/ B,/B,/B,/B,/ | %24
 [C,C]/[C,C]/C,/C,/ C,/C,/C,/C,/ [F,C]/[F,C]/[F,C]/[F,C]/ [F,C]/[F,C]/[F,C]/[F,C]/ | %25
 B,,/B,,/B,,/B,,/ C,/C,/C,/C,/ C,/C,/C,/C,/ C,/C,/C,/C,/ | %26
 C,/C,/C,/C,/ C,/C,/C,/C,/ !fermata!D,2 z [C,C] | %27
 F,,F,,C,C,, [F,C]/[F,F]/[F,F]/[F,F]/ [F,F]/[F,F]/[F,F]/[F,F]/ | %28
 [F,F]/[F,F]/[F,F]/[F,F]/ [F,F]/[F,F]/[F,D]/[F,D]/ [=E,D]/[E,D]/[E,D]/[E,D]/ [E,D]/[E,D]/[E,D]/[E,D]/ | %29
 [E,C]/[E,C]/[E,C]/[E,C]/ [E,C]/[E,C]/[E,C]/[E,C]/ [=D,C]/[D,C]/[D,C]/[D,C]/ [D,C]/[D,C]/[D,C]/[D,C]/ | %30
 [D,B,]/[D,B,]/[D,B,]/[D,B,]/ [D,B,]/[D,B,]/[D,B,]/[D,B,]/ [C,B,]/[C,B,]/[C,B,]/[C,B,]/ [C,B,]/[C,B,]/[C,G,]/[C,G,]/ | %31
 C,/C,/C,/C,/ C,/C,/C,/C,/ [F,C][F,C]B,,[C,C] | !fermata![F,,F,]2 z F, F,/F,/F,/F,/ F,/F,/F,/F,/ | %33
 F,/F,/F,/F,/ E,/E,/E,/E,/ F,,/F,,/F,,/F,,/ F,,/F,,/F,,/F,,/ | %34
 G,,/G,,/G,,/G,,/ G,,/G,,/G,,/G,,/ G,,/G,,/G,,/G,,/ G,,/G,,/G,,/G,,/ | %35
 G,,/G,,/G,,/G,,/ G,,/G,,/G,,/G,,/ G,,/G,,/G,,/G,,/ G,,/G,,/G,,/G,,/ | %36
 [C,G,]/[C,G,]/[C,G,]/[C,G,]/ [C,G,]/[C,G,]/[C,G,]/[C,G,]/ [=A,,F,]/[A,,F,]/[A,,F,]/[A,,F,]/ [A,,F,]/[A,,F,]/[A,,F,]/[A,,F,]/ | %37
 [B,,F,]/[B,,F,]/[B,,F,]/[B,,F,]/ [B,,F,]/[B,,F,]/[B,,F,]/[B,,F,]/ E,/E,/E,/E,/ E,/E,/E,/E,/ | %38
 F,/F,/F,/F,/ F,/F,/F,/F,/ B,,/B,,/B,,/B,,/ B,,/B,,/B,,/B,,/ | B,,B,,F,F,, !fermata!B,,4 |] %40

